!!!!SEGMENT: pl-kk--kk-i-2--031_anonim--alleluia-post-partum-virgo.krn
!!!cenid: 16xx:1651
!!!COM: Anonim
!!!COM-rismid: pe30004985
!!!CDT:
!!!CNT:
!!!OTL: Alleluia. Post partum Virgo
!!!PDT:
!!!AGN: Sacred
!!!SMS-siglum: PL-Kk
!!!SMS-shelfmark: Kk.I.2
!!!SMS-shelfwork: 031 W
!!!NIFC-rismid: 300258049
!!!URL-scan: http://repozytorium.nifc.pl/skany/pl-kk-nut--i-2
!!!ONB-nifc: skany: C: 0056; A: 0159; T: 0260; B: 0358-0359;
!!!key: e:mix
**kern	**text	**kern	**text	**kern	**text	**kern	**text
*part4	*part4	*part3	*part3	*part2	*part2	*part1	*part1
*staff4	*staff4	*staff3	*staff3	*staff2	*staff2	*staff1	*staff1
*I"BASVS	*	*I"TENOR	*	*I"ALTVS	*	*I"DISCANTVS	*
*I'B	*	*I'T	*	*I'A	*	*I'S	*
*ICvox	*	*ICvox	*	*ICvox	*	*ICvox	*
*clefF4	*	*clefC4	*	*clefC4	*	*clefC1	*
*k[]	*	*k[]	*	*k[]	*	*k[]	*
*a:	*	*a:	*	*a:	*	*a:	*
*M2/1	*	*M2/1	*	*M2/1	*	*M2/1	*
*met(C|)	*	*met(C|)	*	*met(C|)	*	*met(C|)	*
=1-	=1-	=1-	=1-	=1-	=1-	=1-	=1-
*2\right	*	*2\right	*	*2\right	*	*2\right	*
*lig	*	*	*	*lig	*	*lig	*
1C	Al-	0G	Al-	1c	Al-	1c	Al-
1GG	.	.	.	1B	.	1d	.
*Xlig	*	*	*	*Xlig	*	*Xlig	*
=2-	=2-	=2-	=2-	=2-	=2-	=2-	=2-
*	*	*	*	*	*	*lig	*
0.D	-le-	1.F	-le-	2A/	-le-	1d	-le-
.	.	.	.	2.d\	.	.	.
.	.	.	.	.	.	1f	.
.	.	.	.	4c\	.	.	.
.	.	2E/	.	1c\	.	.	.
*	*	*	*	*	*	*Xlig	*
=3-	=3-	=3-	=3-	=3-	=3-	=3-	=3-
!	!	!LO:TX:t=P:problem:kreska pseudotaktowa	!	!	!	!	!
.	.	1D	.	.	.	1f	.
.	.	.	.	2B/	.	.	.
2.C/	.	2.E/	.	1c	.	1.e	.
4D/	.	4F/	.	.	.	.	.
=4-	=4-	=4-	=4-	=4-	=4-	=4-	=4-
2E/	.	2G/	.	2B/	.	.	.
2AA/	.	2A/	.	2c\	.	4d/	.
.	.	.	.	.	.	4c/	.
1D	-lu-	1F	-lu-	1A	-lu-	1d	-lu-
=5-	=5-	=5-	=5-	=5-	=5-	=5-	=5-
!LO:TX:t=P:problem:kreska pseudotaktowa	!	!LO:TX:t=P:problem:podwójna kreska taktowa	!	!LO:TX:t=P:problem:podwójna kreska taktowa	!	!LO:TX:t=P:problem:kreska pseudotaktowa	!
0AA;	-ia	0E;	-ia	0A;	-ia	0e;	-ia
=6|-	=6|-	=6||-	=6||-	=6||-	=6||-	=6-	=6-
1.D	Post	1.A	Poſt	0r	.	0f	Post
2E\	.	2G/	.	.	.	.	.
=7-	=7-	=7-	=7-	=7-	=7-	=7-	=7-
*	*	*	*	*	*	*lig	*
1F	par-	1A	.	0r	.	1f	.
!	!	!LO:SIC:v:t=custos A	!	!	!	!LO:TX:t=P:problem:kreska pseudotaktowa	!
1G	-tum	1B-X	par-	.	.	1d	.
*	*	*	*	*	*	*Xlig	*
!	!	!LO:LB:g=original	!	!	!	!	!
=8-	=8-	=8-	=8-	=8-	=8-	=8-	=8-
*	*	*	*	*	*	*lig	*
1.F	.	1.A	.	0r	.	1f	par-
.	.	.	.	.	.	1d	.
4E/	.	4G/	.	.	.	.	.
4D/	.	4F/	.	.	.	.	.
*	*	*	*	*	*	*Xlig	*
=9-	=9-	=9-	=9-	=9-	=9-	=9-	=9-
2E\	.	2G/	.	0r	.	1c	-tu(m)
2F\	.	1A	.	.	.	.	.
!	!	!	!	!	!	!LO:TX:t=P:problem:kreska pseudotaktowa	!
1D	.	.	.	.	.	1d	.
.	.	4G/	.	.	.	.	.
.	.	4F/	.	.	.	.	.
=10-	=10-	=10-	=10-	=10-	=10-	=10-	=10-
1.C	.	0G	-tum	0c	Post	00e\	vir-
2BB/	.	.	.	.	.	.	.
=11-	=11-	=11-	=11-	=11-	=11-	=11-	=11-
*	*	*	*	*lig	*	*	*
2AA/	.	1.c	.	1c	par-	.	.
1A	.	.	.	.	.	.	.
.	.	.	.	1A	.	.	.
4G\	.	4Bny/	.	.	.	.	.
!LO:SIC:v:t=custos E	!	!	!	!	!	!	!
4F\	.	4A/	.	.	.	.	.
*	*	*	*	*Xlig	*	*	*
!LO:LB:g=original	!	!	!	!	!	!	!
=12-	=12-	=12-	=12-	=12-	=12-	=12-	=12-
*	*	*	*	*lig	*	*	*
!	!	!	!	!	!	!LO:TX:t=P:problem:kreska pseudotaktowa	!
2E/	.	2G/	.	1c	-tum	00e\	-go
1AA	.	1A	.	.	.	.	.
.	.	.	.	1A	.	.	.
2BB/	.	4G/	.	.	.	.	.
.	.	4F/	.	.	.	.	.
*	*	*	*	*Xlig	*	*	*
=13-	=13-	=13-	=13-	=13-	=13-	=13-	=13-
1C	.	0.E	.	1G	.	.	.
1AA	.	.	.	1A	.	.	.
=14-	=14-	=14-	=14-	=14-	=14-	=14-	=14-
2E\	.	.	.	2B/	.	1e	.
1AA	.	.	.	1A	.	.	.
.	.	1r	.	.	.	1c	.
1A\	.	.	.	1c\	.	.	.
=15-	=15-	=15-	=15-	=15-	=15-	=15-	=15-
!	!	!	!	!	!	!LO:TX:t=P:problem:kreska pseudotaktowa	!
.	.	0r	.	.	.	1e	.
4G\	.	.	.	4B/	.	.	.
!	!	!	!	!LO:SIC:v:t=custos B	!	!	!
4F\	.	.	.	4A/	.	.	.
2E\	.	.	.	2B/	.	2g/	.
1F\	.	.	.	1A\	.	1a\	.
!	!	!	!	!LO:LB:g=original	!	!	!
=16-	=16-	=16-	=16-	=16-	=16-	=16-	=16-
.	.	2r	.	.	.	.	.
4E/	.	2F/	.	2B\	.	4g/	.
!	!	!	!	!	!	!LO:TX:t=P:problem:kreska pseudotaktowa	!
4D/	.	.	.	.	.	4f/	.
2C/	.	2E/	.	2c\	.	2e/	.
2D/	.	2D/	.	2B\	.	2f/	.
=17-	=17-	=17-	=17-	=17-	=17-	=17-	=17-
2AA/	.	2E/	.	2c\	.	2e/	.
2D/	.	2F/	.	1A	.	1d	.
1AA	.	1E	.	.	.	.	.
!	!	!	!	!	!	!LO:SIC:v:t=custos d	!
.	.	.	.	2A/	.	2c/	.
!	!	!	!	!	!	!LO:LB:g=original	!
=18-	=18-	=18-	=18-	=18-	=18-	=18-	=18-
!	!	!	!	!	!	!LO:TX:t=P:problem:kreska pseudotaktowa	!
2D/	.	2D/	.	1B	.	0d	.
1GG	.	2.d\	.	.	.	.	.
.	.	.	.	1G	.	.	.
.	.	4c/	.	.	.	.	.
1G\	.	4B/	.	.	.	.	.
.	.	4A/	.	.	.	.	.
=19-	=19-	=19-	=19-	=19-	=19-	=19-	=19-
.	.	1G	.	1B	.	0r	.
4F\	.	.	.	.	.	.	.
4E\	.	.	.	.	.	.	.
2D/	.	2A/	.	2d\	.	.	.
1C/	.	1c\	.	1e\	.	.	.
=20-	=20-	=20-	=20-	=20-	=20-	=20-	=20-
.	.	.	.	.	.	0r	.
2D/	.	4B/	.	4d\	.	.	.
!	!	!LO:SIC:v:t=custos G	!	!	!	!	!
!	!	!LO:LB:g=original	!	!	!	!	!
.	.	4A/	.	4c\	.	.	.
2E/	.	1G	.	2B/	.	.	.
4D/	.	.	.	2c\	.	.	.
!LO:SIC:v:t=custos D	!	!	!	!	!	!	!
4C/	.	.	.	.	.	.	.
!LO:LB:g=original	!	!	!	!	!	!	!
=21-	=21-	=21-	=21-	=21-	=21-	=21-	=21-
!	!	!	!	!	!	!LO:TX:t=P:problem:kreska pseudotaktowa	!
4D/	.	1D	.	2B/	.	1r	.
4C/	.	.	.	.	.	.	.
4BB/	.	.	.	1A	.	.	.
4AA/	.	.	.	.	.	.	.
*	*	*lig	*	*	*	*	*
1BB	.	1D	.	.	.	1d	.
.	.	.	.	2G/	.	.	.
=22-	=22-	=22-	=22-	=22-	=22-	=22-	=22-
0AA	.	1F	.	2A/	.	2.c/	.
.	.	.	.	1c	.	.	.
.	.	.	.	.	.	4d/	.
*	*	*Xlig	*	*	*	*	*
*	*	*lig	*	*	*	*	*
.	.	1E	.	.	.	1e	.
.	.	.	.	4B/	.	.	.
.	.	.	.	4A/	.	.	.
=23-	=23-	=23-	=23-	=23-	=23-	=23-	=23-
2r	.	1F	.	2A/	.	2c/	.
2D/	.	.	.	1d	.	1f	.
*	*	*Xlig	*	*	*	*	*
2E/	.	2G/	.	.	.	.	.
2C/	.	2E/	.	1c\	.	1e/	.
=24-	=24-	=24-	=24-	=24-	=24-	=24-	=24-
1D	.	1F	.	.	.	.	.
!	!	!	!	!	!	!LO:TX:t=P:problem:kreska pseudotaktowa	!
.	.	.	.	2B/	.	2d/	.
!	!	!	!	!	!	!LO:TX:t=P:problem:kreska pseudotaktowa	!
1AA	.	1E	.	1c	.	1e	.
=25-	=25-	=25-	=25-	=25-	=25-	=25-	=25-
1E	.	1G	.	1B	.	1e	.
!	!	!	!	!	!	!LO:TX:t=P:problem:kreska pseudotaktowa	!
1E	.	1G	.	1B	.	1e	.
=26-	=26-	=26-	=26-	=26-	=26-	=26-	=26-
2.C/	.	1.c	.	0r	.	1g	.
4BB/	.	.	.	.	.	.	.
2AA/	.	.	.	.	.	1a	.
2GG/	.	2B/	.	.	.	.	.
=27-	=27-	=27-	=27-	=27-	=27-	=27-	=27-
!	!	!	!	!	!	!LO:TX:t=P:problem:kreska pseudotaktowa	!
2FF/	.	2A/	.	0r	.	1a	.
2GG/	.	1G	.	.	.	.	.
1AA	.	.	.	.	.	1cc	.
.	.	2F/	.	.	.	.	.
=28-	=28-	=28-	=28-	=28-	=28-	=28-	=28-
0E	.	2G/	.	1r	.	2b\	.
.	.	2A/	.	.	.	1a	.
!	!	!	!	!LO:SIC:v:t=custos e	!	!	!
.	.	1B	.	2r	.	.	.
!	!	!	!	!	!	!LO:TX:t=P:problem:kreska pseudotaktowa	!
.	.	.	.	2.e\	.	2g/	.
!	!	!	!	!LO:LB:g=original	!	!	!
=29-	=29-	=29-	=29-	=29-	=29-	=29-	=29-
*	*	*lig	*	*	*	*	*
0AA	.	1A	.	.	.	1.a	.
.	.	.	.	4d\	.	.	.
.	.	.	.	4c\	.	.	.
.	.	.	.	4B\	.	.	.
.	.	1c	.	1A	.	.	.
.	.	.	.	.	.	4g/	.
.	.	.	.	.	.	4f/	.
*	*	*Xlig	*	*	*	*	*
=30-	=30-	=30-	=30-	=30-	=30-	=30-	=30-
0E	.	2B/	.	2B/	.	00e	.
.	.	1A	.	2c\	.	.	.
.	.	.	.	1B	.	.	.
.	.	2G/	.	.	.	.	.
=31-	=31-	=31-	=31-	=31-	=31-	=31-	=31-
1.AA	.	1.A	.	1.c	.	.	.
2BB/	.	4G/	.	4B/	.	.	.
.	.	4F/	.	4A/	.	.	.
=32-	=32-	=32-	=32-	=32-	=32-	=32-	=32-
00C\	.	0E	.	2G/	.	0e	.
.	.	.	.	2A/	.	.	.
.	.	.	.	2G/	.	.	.
.	.	.	.	1A\	.	.	.
=33-	=33-	=33-	=33-	=33-	=33-	=33-	=33-
!	!	!	!	!	!	!LO:TX:t=P:problem:kreska pseudotaktowa	!
.	.	0E	.	.	.	1r	.
.	.	.	.	4G/	.	.	.
.	.	.	.	4F/	.	.	.
.	.	.	.	2E/	.	1e	.
.	.	.	.	2c\	.	.	.
=34-	=34-	=34-	=34-	=34-	=34-	=34-	=34-
*lig	*	*	*	*	*	*lig	*
1D	.	1r	.	2B\	.	1f	.
.	.	.	.	1A	.	.	.
1BB	.	1D	.	.	.	1d	.
.	.	.	.	2G/	.	.	.
*Xlig	*	*	*	*	*	*Xlig	*
=35-	=35-	=35-	=35-	=35-	=35-	=35-	=35-
*lig	*	*	*	*	*	*	*
!	!	!	!	!	!	!LO:TX:t=P:problem:kreska pseudotaktowa	!
1AA	.	1E	.	0.A	.	1c	.
!LO:SIC:v:t=custos AA	!	!	!	!	!	!	!
1D	.	1F	.	.	.	1d	.
*Xlig	*	*	*	*	*	*	*
!LO:PB:g=original	!	!	!	!	!	!	!
=36-	=36-	=36-	=36-	=36-	=36-	=36-	=36-
!	!	!LO:SIC:v:t=custos E	!	!	!	!	!
2.AA/	.	1E	.	.	.	1.e	.
4BB/	.	.	.	.	.	.	.
!	!	!LO:LB:g=original	!	!	!	!	!
2C/	.	2E/	.	2r	.	.	.
1D\	.	2.A/	.	2.d\	.	1f/	.
=37-	=37-	=37-	=37-	=37-	=37-	=37-	=37-
.	.	.	.	.	.	.	.
.	.	4G/	.	4B/	.	.	.
2C/	.	2E/	.	2c\	.	1e	.
1D	.	1F	.	1.A	.	.	.
.	.	.	.	.	.	2d/	.
=38-	=38-	=38-	=38-	=38-	=38-	=38-	=38-
!	!	!	!	!	!	!LO:TX:t=P:problem:kreska pseudotaktowa	!
0AA	.	00E;\	.	.	.	00e	.
.	.	.	.	1c	.	.	.
.	.	.	.	1B\	.	.	.
=39-	=39-	=39-	=39-	=39-	=39-	=39-	=39-
1r	.	.	.	.	.	.	.
.	.	.	.	2A/	.	.	.
!LO:SIC:v:t=custos C	!	!	!	!LO:SIC:v:t=custos c	!	!	!
1E	.	.	.	1B;<	.	.	.
==	==	==	==	==	==	==	==
*-	*-	*-	*-	*-	*-	*-	*-
!!!RDF**kern: < = below
!!!system-decoration: [(s1,s2,s3,s4)]
!!!ENC: Filip Voros
!!!END: 2022-01-15
!!!ENC: Urszula Świątek
!!!END: 2022-01-21
